X:1
T:Title
%%score { 1 | ( 2 3 ) }
L:1/8
M:6/8
K:Ab
V:1 treble nm="Grand Piano"
V:2 bass 
V:3 bass 
V:1
 z3 z2[Q:1/4=84] [CE] | [Ec]2 [CA] [CE]2 [EA] | B>AF [CE]2 [CE] | [CEA]2 [Ec] [Ee]2 [Ec] | %4
[M:5/8] [EB]-[EB]- [EB]3 |[M:1/8] [Ed] |[M:3/4] [Ec]2 [CA] [CE]2 [EA] | B>A F [CE]2 [CE] | %8
 [DF]2 [Fd]c- c/A/[DEB] |[M:5/8] [CEA]-[CEA]- [CEA]3 |] %10
V:2
 z3 z2 [A,,A,] | [A,,A,]2 [A,,A,] [A,,A,]2 [C,A,] | [D,F,D]2 [D,A,D] [A,,A,]2 [A,,A,] | %3
 A,,2 [A,,A,] [C,A,]2 [A,,A,] |[M:5/8] [E,G,]-[E,G,]- [E,G,]3 |[M:1/8] [E,G,] | %6
[M:3/4] [A,,A,]2 [A,,A,] [A,,A,]2 [C,A,] | [D,F,D]2 [D,A,D] [A,,A,]2 [A,,A,] | z2 z .A,3 | %9
[M:5/8] A,,-A,,- A,,3 |] %10
V:3
 x6 | x6 | x6 | x6 |[M:5/8] x5 |[M:1/8] x |[M:3/4] x6 | x6 | %8
 [D,A,]2 [D,A,][E,E]- [E,E]/-[E,CE]/E, |[M:5/8] x5 |] %10

